X: 2
T: Roisin Dubh
R: hornpipe
M: 4/4
L: 1/8
K: Dmaj
AF/A/|D3 E/D/F/A/e3 |{fe}d/e/f3 ed3|BA3 FE3| D<E F3E D2|D4 D2 AF/A/|
D3 E/D/F/A/e3 |{fe}d/e/f3 ed3|BA3 FE3| D<E F3E D2|D4 D2||
de/f/ g5f|e<d (3f>ed c<A B/A/F/A/|e2 d<e f>e d2|de/f/ g3f e<d| (3f>ed c<A|
B/A/F/A/ e2 d<e f2|f>e d2 B>A AF/A/ D2|D2 E<D F<A e2{fef}|
d<e f3e d2|d>B A2 F2 E2|D<E F2 E2 D2| D4 D4||


Tune 4184	Setting 27370

